src/actions/16/kr_unselect.svg

<svg viewBox="0 0 16 16" xmlns="http://www.w3.org/2000/svg">
 <defs>
  <style type="text/css">.ColorScheme-Text {
        color:#2e3440;
      }
      .ColorScheme-NegativeText {
        color:#bf616a;
      }</style>
 </defs>
 <path class="ColorScheme-Text" d="m3.75 2c-0.393 0-0.75 0.357-0.75 0.75s0.357 0.75 0.75 0.75 0.75-0.357 0.75-0.75-0.357-0.75-0.75-0.75m0.75 2.25 5e-3 9.75 2.995-4h4.5z" fill="currentColor"/>
 <path class="ColorScheme-NegativeText" d="M 9,2.83 10.667,4.497 9,6.164 9.833,6.997 11.5,5.33 13.167,6.997 14,6.164 12.333,4.497 14,2.83 13.167,1.997 11.5,3.664 9.833,1.997 Z" fill="currentColor"/>
</svg>

<svg xmlns="http://www.w3.org/2000/svg" viewBox="0 0 16 16">
  <defs id="defs3051">
    <style type="text/css" id="current-color-scheme">
      .ColorScheme-Text {
        color:#2e3440;
      }
      .ColorScheme-NegativeText {
        color:#bf616a;
      }
      </style>
  </defs>
  <path style="fill:currentColor;fill-opacity:1;stroke:none" 
     d="M 3.75,2 C 3.357,2 3,2.357 3,2.75 3,3.143 3.357,3.5 3.75,3.5 4.143,3.5 4.5,3.143 4.5,2.75 4.5,2.357 4.143,2 3.75,2 M 4.5,4.25 4.505,14 7.5,10 12,10 Z" 
     class="ColorScheme-Text"
     />
  <path
     style="fill:currentColor;fill-opacity:1;stroke:none" 
     class="ColorScheme-NegativeText"
     d="M 9,2.83 10.667,4.497 9,6.164 9.833,6.997 11.5,5.33 13.167,6.997 14,6.164 12.333,4.497 14,2.83 13.167,1.997 11.5,3.664 9.833,1.997 Z" />
</svg>
